!!!OTL: Cuisle mo chroí, S. 63
!!!id: I0540
**kern
*clefG2
*k[b-e-a-]
*E-:
{8e-
=1
8e-
8e-
8f
4g
8b-
=2
4f
8e-
4e-}
=3
{8b-
=4
8ee-
8ee-
8ee-
4dd
8b-
=5
4cc
8b-
4b-}
=6
{16e-
16b-
16cc
16dd
16e-
=7
8ee-
8ee-
8ee-
8dd
8b-
8cc
=8
8dd-
8b-
8a-
8g
8f}
=9
{8e-
=10
8g
8a-
8g
8f
8e-
8f
=11
4e-
8f
4g}
=12
{8ee-
=13
8ee-
8b-
8a-
8g
8a-
8g
=14
4f
8e-
4e-}
==
*-
!!!minrhy: 16
!!!meters: 6/8 ]  ZZ[5
!!!cut: Cuisle mo chroí, S. 63
!!!reg: Irland
!!!trd: O'SULLIVAN, Donal: Song of the Irish
!!!rhy1: X_  X_X_X_X__X_  X__X_X__   (x2)
!!!rhy2: X_  X_X_X_X__X_  X__X_X__
!!!key: I0540  16 Eb 6/8 ]  ZZ[5
!!!mod: ACHTTONSKALA DUR ?]  AMBITUS[8
!!!kad: 15231
!!!akz: 1321_+1765_+177b3_3213_+1321_
!!!fot: 'a__as"b__c__aw_
!!!for: 'a__a__b__c__c__
!!!fok: '^__^__Md_~a_\__
!! PHRAS[AUFTAKTIG]
!!!fkt: Liebeslied
!! IRISCHE V
!! PR[20] 2K[9] 2G[20] 3K[4] 3G[3] 4A[3] 4Ü[0] 5A[0] 6K[0] 6G[1]
!! 7K[0] 7G[0] 8A[0] MEHR[0] SI[39] ABS[148] SR[29] SP[10]
!! ST[32] 2k[9] 2g[19] 3k[7] 3g[6] 4d[1] 4ü[0] 5d[0] 6k[0] 6g[0]
!! 7k[0] 7g[0] 8d[0] mehr[0] si[41] dm[-2] sr[28] sp[14]
!! 1F[36] 2F[60] 3F[3] 4F[0] LF[0] 2P[2] 3P[0] 4P[0] TRI[0] DF[4] AB[149]
!! TF[0] U3K[0] U3[2] U4[2] U4Ü[0] U5[18] U6K[0] U6[5] U7K[0] U7[9]
!! N1[22] N2K[0] N2[9] N3K[0] N3[9] N4[10] N4Ü[0] N5[9] N6K[0] N6[3]
!!!n7k: 0] N7[0] O1[0] O2K[0] O2[0] O3K[0] O3[0] HÖ[0
